X: 19609
T: January In Glasgow
R: reel
M: 4/4
K: Bminor
B2ed BedB|c~A3 EFAc|B2ed BedB|f=ggf edBA|
B2ed BedB|c~A3 EFAc|B2ed BedB|~=g3f edBA:|
|:B2ba fedB|~e3f edBA|B2ba fedB|~f3e dBAF|
B2ba fedB|~e3f edBA|EFAF ABAB|1 f2f2 edBA:|2 efaf edBA||

